X: 30745
T: Oró A Bhuachaillín
R: slide
M: 12/8
K: Gmajor
|:A|B3 BAG c3 cc/B/A|B3 BdB A2 D D2 c|
B^AB B2 G cAc cBA|B/c/dB A^GA B2 G G2:|
|:e|d2 c BAG B2 d G2 f|g2 g fed e2 A A2 B|
d2 c BB/A/G B2 d G2 g|f2 e def g3 G2:|

